icons/src/scalable/default/status/warning-small-symbolic.svg

<?xml version="1.0" encoding="UTF-8" standalone="no"?>
<svg
   height="16"
   width="16"
   version="1.1"
   id="svg4"
   sodipodi:docname="software-update-urgent-symbolic (copie).svg"
   inkscape:version="1.1 (ce6663b3b7, 2021-05-25)"
   xmlns:inkscape="http://www.inkscape.org/namespaces/inkscape"
   xmlns:sodipodi="http://sodipodi.sourceforge.net/DTD/sodipodi-0.dtd"
   xmlns="http://www.w3.org/2000/svg"
   xmlns:svg="http://www.w3.org/2000/svg">
  <defs
     id="defs8" />
  <sodipodi:namedview
     id="namedview6"
     pagecolor="#ffffff"
     bordercolor="#666666"
     borderopacity="1.0"
     inkscape:pageshadow="2"
     inkscape:pageopacity="0.0"
     inkscape:pagecheckerboard="0"
     showgrid="true"
     inkscape:zoom="28"
     inkscape:cx="7.9464286"
     inkscape:cy="10.053571"
     inkscape:window-width="1920"
     inkscape:window-height="1016"
     inkscape:window-x="0"
     inkscape:window-y="27"
     inkscape:window-maximized="1"
     inkscape:current-layer="svg4">
    <inkscape:grid
       type="xygrid"
       id="grid937" />
  </sodipodi:namedview>
  <path
     id="path4"
     style="line-height:normal;text-indent:0;text-align:start;text-decoration-line:none;text-decoration-style:solid;text-decoration-color:#000000;text-transform:none;isolation:auto;mix-blend-mode:normal;stroke-width:0.999999;fill:#fdc92b;fill-opacity:1"
     d="M 7.953125 1 A 1.0128072 0.98892867 0 0 0 7.1308594 1.4921875 L 0.1328125 13.541016 A 0.99908973 0.97553461 0 0 0 0.99804688 15 L 15.001953 15 A 0.99908973 0.97553461 0 0 0 15.867188 13.541016 L 8.875 1.4921875 A 1.010521 0.98669637 0 0 0 7.9550781 1 L 7.953125 1 z M 7 5 L 9 5 L 9 8 L 8.5 10 L 7.5 10 L 7 8 L 7 5 z M 8 11 A 1 1 0 0 1 8 13 A 1 1 0 0 1 8 11 z "
     class="warning" />
</svg>

<svg version="1.1" viewBox="0 0 16 16" xmlns="http://www.w3.org/2000/svg">
 <path class="warning" d="m7.9531 1a1.0128 0.98893 0 0 0-0.82227 0.49219l-6.998 12.049a0.99909 0.97553 0 0 0 0.86523 1.459h14.004a0.99909 0.97553 0 0 0 0.86524-1.459l-6.9922-12.049a1.0105 0.9867 0 0 0-0.91992-0.49219h-0.0019531zm-0.95312 4h2v3l-0.5 2h-1l-0.5-2v-3zm1 6a1 1 0 0 1 0 2 1 1 0 0 1 0-2z" fill="#fdc92b" style="isolation:auto;mix-blend-mode:normal;text-decoration-color:#000000;text-decoration-line:none;text-decoration-style:solid;text-indent:0;text-transform:none"/>
</svg>
